!! 00000] TT[WS
!!!OTL: Guafu sifu
!!!ARE: Asia, China,ÿShanxi Wutai
!! Ethnic Group: Han
!! WI, 205 (2)
!!!SCT: J0242
!!!YEM: Copyright 1995, estate of Helmut Schaffrath.
**kern
*ICvox
*Ivox
*M2/4
*k[b-]
*F:
{4dd
8ee
8dd
=1
4cc
8a
8g
=2
4dd
8ee
8dd
=3
4cc
8a
8g
=4
4.ff
8ee
=5
8dd
8ee
8dd
8cc
=6
8a
8cc
8a
8dd
=7
4cc
4r}
=8
{8dd
8cc
4dd
=9
8dd
8ee
8dd
8cc
=10
8dd
8ee
8dd
8cc
=11
8dd
8ff
8cc
8a
=12
4.g
8a
=13
4g
4r}
=14
{4cc
8a
8cc
=15
8dd
8ff
8cc
8a
=16
8g
8a
4cc
=17
8a
8cc
8a
16g
16a
=18
8f
16f
16g
8a
8g
=19
4f
4r}
==
!!!AGN: Xiaodiao. Qingge, Aisu
!!!ONB: ESAC (Essen Associative Code) Database: CHINA
!!!AMT: simple duple
!!!AIN: vox
!!!EED: Helmut Schaffrath
!!!EEV: 1.0
*-
